X:6
T:Les poules huppees
C:G. Chabenat
I:Airs nouveaux pour danses anciennes
Q:1/4=78
M:3/8 
K:F
D3FED |A4A=B |c=BAdcB |c=BABAG |
D3FED |A4A=B |c=BAdcd |1A6 :|2
A4de |:f2AfAe |B4de |fdgfed |
^c2=d2e2 |f2AfAe |B4de |fdgfe^c |1
d4de :|2d6 |]
